X: 305742
M: 6/8
L: 1/8
K: C
ced cBc | dBG GAB | c2c e2g | fef d2G |\
ced cBc | dBG GAB | ceg gfd | dcc c2 H|]
fef d^cd | BAB GAB | cde fAd | (cB)A G2G |\
fef d^cd | BAB GAB | ceg gfd | dcc "^D.C."c2 :|


